X:1546
T:My Sweetheart Jane
R:reel
N:"collected from J. O'Neill"
B:"O'Neill's Dance Music of Ireland, 1546"
T: mo suiri.dea.c sineid.
Z:transcribed by John B. Walsh, walsh@math.ubc.ca 8/23/96
M:C|
L:1/8
K:G
DGGF Adde|ABcA dBcA|DGGF Adde|fdcA BGAF|
DGGF Adde|ABcA dBcA|DGGF Adde|fdcA AG G2||
dggf g2 ag|fdde fgaf|dggf gbag|fdcA dBcA|
dggf g2 ag|fdde fg a2|bgaf gdde|fdcA AG G2||


